X:1
T:Title
%%score { ( 1 3 ) | ( 2 4 ) }
L:1/8
M:4/4
K:F
V:1 treble nm="Grand Piano"
V:3 treble 
V:2 bass 
V:4 bass 
V:1
 z4 z2[Q:1/4=100] A2 | c2 F2 BBAA | E4- [Ec]2 [Ec]2 | [Fc]2 [GB]A [EG]2 [GB]2 | [FA]6 [Fc]2 | %5
 [Fd]2 [^FA]2 [GB][GB][Gc][GB] | A4 c2 [Af]2 | e2 dc =B2 d2 | [Ec]6 [Ec]2 | %9
 [GB]3 [FA] [EG][FA][GB][Ec] | d4 c2 [CFA]2 | [EAc]2 [D_A=B]=A [=B,E_A]2 [DEB]2 | [CEA]6 [DFG]2 | %13
 [CEG]3 [CFA] [CGB][CEG][CFA][Fc] | d4 [DB]2 [DG]2 | F2 EF [CEA]3 [B,EG] |[M:3/4] [A,F]6 |] %17
V:2
 z4 z2 [F,CF]2 | [F,A,F]2 [A,C]2 [G,CE][G,CE][F,CF][F,CF] | z4 G,2 [C,B,]2 | %3
 [F,A,]2 C-[F,CF] [C,C]2 [C,C]2 | [F,C]6 [F,A,]2 | [D,A,]2 [D,D]2 [G,D][G,D][E,C][C,C] | C4 z4 | %7
 [G,CG]2 [=B,F][CE] [G,DF]2 [G,B,F]2 | [C,C]6 [C,C]2 | [C,C]3 [C,C] [C,C][C,C][C,C][C,C] | B,4 z4 | %11
 E,2 z C E,2 E,2 | A,,6 =B,,2 | C,3 C, B,,C,F,[F,A,] | B,4 z2 [B,,B,]2 | z2 [C,C]2 z4 | %16
[M:3/4] F,6 |] %17
V:3
 x8 | x8 | [CG]4 z4 | x8 | x8 | x8 | x8 | x8 | x8 | x8 | x8 | x8 | x8 | x8 | F6 z2 | x8 | %16
[M:3/4] x6 |] %17
V:4
 x8 | x8 | C,6 z2 | z2 .E,2 z4 | x8 | x8 | [F,F]4- [F,A,F]2 [F,C]2 | z2 G,2 z4 | x8 | x8 | %10
 [F,F]4- [F,A,F]2 F,2 | z2 E,2 z4 | x8 | x8 | B,,6 z2 | [C,A,C]2 G,A, C,3 C, |[M:3/4] x6 |] %17

